X:1
T:Hungarian Dance No.5
T:Hungarian Dance No.5
T:Johannes Brahms
C:Johannes Brahms
%%score 1 2 3
L:1/8
M:2/4
K:Bb
V:1 treble nm="Violin" snm="Vln"
V:2 bass nm="Piano" snm="Pno"
V:3 bass nm="Piano" snm="Pno"
V:1
!f! (D3 G) | (B3 G) | (^F3 G/A/) | G4 | (E3 F/G/) | D4 | (C/B,/)(B,/A,/) (A,>D) | G,4 | (D3 G/)B/ | %9
 (d3 B) | (A3 B/c/) | B4 | .e/.f/.g/.e/ .d/.e/.f/.d/ | .c/.d/.e/.c/ .B/.c/.d/.B/ | c/B/B/A/ (A>d) | %15
 G2 g z | d2 d2 | (e3 d) | z c2 =B/c/ | d/c/=B/d/ c z | c2 c2 | (d3 c) | z B2 A/B/ | c/B/A/c/ B z | %24
 A2 A2 | c B2 A | A G2 (^F/G/) | A/G/^F/A/ G2 | d z z3/2 D/ | =E z ^F z | G G2 (^F/G/) | %31
 A/G/^F/A/ G z | (D3 G) | (B3 G) | (^F3 G/A/) | G4 | (E3 F/G/) | D4 | (C/B,/)(B,/A,/) (A,>D) | %39
 G,4 | (D3 G/)B/ | (d3 B) | (A3 B/c/) | B4 | .e/.f/.g/.e/ .d/.e/.f/.d/ | %45
 .c/.d/.e/.c/ .B/.c/.d/.B/ | (c/B/)B/A/ (A>d) | G2 g z |] %48
V:2
 z [D,G,B,] z [D,G,B,] | z [D,G,B,] z [D,G,B,] | z [E,G,C] z [E,G,C] | z [D,G,B,] z [D,G,B,] | %4
 z [CEG] z [CE] | z [B,DG] z [B,DG] | z [D^F] z D | z [B,D] z [B,D] | z [D,G,B,] z [D,G,B,] | %9
 z [D,G,B,] z [D,G,B,] | z [C,E,G,C] z [C,E,G,C] | z [D,G,B,] z [G,B,] | %12
[K:treble] z [GBe] z [FBd] | z [EGc] z [DGB] | z [C^FA] z [CDF] | z [GB] [GBdg] z | %16
 [dfd']2 [dfd']2 | [ege']3 [dfd'] | z [cegc'] z [EGc] | z [EGc] z [EGc] | [cec']2 [cec']2 | %21
 [dfd']3 [cec'] | z [Bdfb] z [DFB] | z [DFB] z [DFB] | [ca]2 [ca]2 | [ec'] [db]2 [ca] | %26
 z [Beg] z [Beg] | z [Beb] [Bdg]2 | [d^fad'] z z3/2 [Dd]/ | [=E=e] z [^F^f] z | [Gg] [Gdg]2 z | %31
 [A,CD]2 [B,DG] z |[K:bass] z [D,G,B,] z [D,G,B,] | z [D,G,B,] z [D,G,B,] | z [E,G,C] z [E,G,C] | %35
 z [D,G,B,] z [D,G,B,] | z [CEG] z [CE] | z [B,DG] z [B,DG] | z [D^F] z D | z [B,D] z [B,D] | %40
 z [D,G,B,] z [D,G,B,] | z [D,G,B,] z [D,G,B,] | z [C,E,G,C] z [C,E,G,C] | z [D,G,B,] z [G,B,] | %44
[K:treble] z [GBe] z [FBd] | z [EGc] z [DGB] | z [C^FA] z [CDF] | z [GB] [Bdg] z |] %48
V:3
!f! G,,2 D,,2 | G,,2 D,,2 | G,,2 C,,2 | G,,2 D,,2 | G,,2 C,,2 | G,,2 D,,2 | ^F,,2 D,,2 | %7
 G,,2 D,,2 | G,,2 D,,2 | G,,2 D,,2 | G,,2 C,,2 | G,,2 D,,2 | E,2 D,2 | C,2 B,,2 | D,2 D,,2 | %15
 G,,2 G,,,2 | G,,[G,=B,F] G,,[G,B,F] | G,,[G,=B,F] G,,[G,B,F] | C,[E,G,C] G,,[E,G,C] | C,2 G,,2 | %20
 A,,[F,A,E] F,,[F,A,E] | A,,[F,A,] F,,[F,A,] | B,,[D,F,B,] F,,2 | B,,2 F,,2 | ^F,,[D,C] D,,[D,C] | %25
 ^F,,[D,C] D,,[D,C] | E,, z B,, z | E, z [B,,B,] z | [D,A,D] z z3/2 [D,,D,]/ | %29
 [=E,,=E,] z [^F,,^F,] z | [G,,G,][B,,G,B,] z2 | [G,,D,]2 [G,,D,] z | G,,2 D,,2 | G,,2 D,,2 | %34
 G,,2 C,,2 | G,,2 D,,2 | G,,2 C,,2 | G,,2 D,,2 | ^F,,2 D,,2 | G,,2 D,,2 | G,,2 D,,2 | G,,2 D,,2 | %42
 G,,2 C,,2 | G,,2 D,,2 | E,2 D,2 | C,2 B,,2 | D,2 D,,2 | G,,2 G,,,2 |] %48

